X: 1
T:SET 79
M:C|
L:1/8
Q:35
C:PM John MacDonald
S:March
K:HP
{g}c/2d/2|
{g}e3/2f/2{gef}ec|
{g}A2{GdGe}Aa|  !
{fg}f{g}e3/4c/4{g}e3/4f/4{g}e3/4d/4|
{gcd}c{g}B{GdGe}B{g}c3/4d/4|
{g}e3/2f/2{gef}ec|  !
{g}A2{GdGe}Aa|
{fg}fe3/4c/4{g}e3/4f/4a3/4e/4|
{gcd}c{e}A{GAG}A:|  !
a|
{fg}f{g}e3/4c/4{g}e3/4f/4a3/4e/4|
{g}f/4a3/4e3/4c/4{g}B/4{d}B3/4a|
{fg}fe3/4c/4{g}e3/4f/4a3/4e/4|  !
{gfg}fB{GdGe}Ba|
{fg}f{g}e3/4c/4{g}e3/4f/4a3/4e/4|
{g}f/4a3/4e3/4c/4{g}B/4{d}B3/4a|  !
{fg}fe3/4c/4{g}e3/4f/4a3/4e/4|
{gcd}c{e}A{GAG}A:|
{gcd}c/2B/2|  !
{g}A3/2B/2{GdG}ca|
{fg}f{g}e3/4c/4{g}B/4{d}B3/4c/2B/2|
{g}A3/4B/4{g}c3/4d/4{g}e3/4f/4{g}e3/4c/4|  !
{gfg}fB{GdGe}B{gcd}c3/4B/4|
{g}A3/2B/2{GdG}ca|
{fg}f{g}e3/4c/4{g}B/4{d}B3/4a|  !
{fg}f{g}e3/4c/4{g}e3/4f/4a3/4e/4|
{gcd}c{e}A{GAG}A:|
{g}c3/4d/4|  !
{g}e3/2f/2{gef}ec|
{g}e2{GdG}e3/2a/2|
{fg}f3/2e/2{g}fa|  !
{fg}f3/2e/2{gcd}ca|
{fg}fe/4c3/4{gcd}c{g}B/4{d}A3/4|
{g}B/4{d}A3/4{g}B3/4c/4{g}ea|  !
{fg}fe3/4c/4{g}e3/4f/4a3/4e/4|
{gcd}c{e}A{GAG}A:|
|: {g}f3/4e/4|
{Gdc}d{g}f{AGAG}A{g}B3/4c/4|
{Gdc}d2{e}A{gf}g|  !
{fg}f3/2e/2{Gdc}d{g}f|
{gfg}f{g}e{A}e{g}f3/4e/4| |
{Gdc}d{g}f{AGAG}A{g}B3/4c/4|  !
{Gdc}d2{e}A3/2{gf}g/2|
{fg}f2{GdG}e3/2f/2|
{Gdc}d2{gdc}d:| |:  !
{gf}g|
{ag}a3/2f/2{Gdc}d{ag}a|
{fg}f{ag}a{Gdc}d{g}e/4f3/4|  !
{gf}g3/2e/2{gcd}c{gef}e|
{gBG}B{gef}e{AGAG}A|1 {g}f/4g3/4| |
|1 {ag}a3/2f/2{Gdc}d{ag}a|  !
{fg}f{ag}a{Gdc}d{gf}g|
{fg}f2{GdG}e3/2f/2|
{Gdc}d2{gdc}d:| |  !
|2 {g}f3/4e/4|
{Gdc}d{g}f{AGAG}A{g}B3/4c/4|
{Gdc}d2{e}A3/2{gf}g/2|  !
{fg}f2{GdG}e3/2f/2|
{Gdc}d2{gdc}d|] |:
{g}f3/4e/4|  !
{Gdc}d{e}A{gBd}B{e}G|
{g}A2{Gdc}d3/2B/2|
{GdG}A3/2B/2{Gdc}d{g}f|  !

% Output from ABC2Win  Version 2.1 h on 31/01/99
